X:169
%%pagewidth 9in
%%vocalfont Baskerville10Pro 14
T:The fairest nymph the valleys
M:2/4
L:1/8
K:Bb
%%score 1 2
V:1 clef-treble
V:2 clef-bass octave=-1
V:1
(G/A/)|(B>c) B(A/G/) & [DG]2 E2|[A,^F]D2D|[DG][C^FA][B,GB][Gc]|[^FAd]3[DFA]|
w:The* fair-est nymph the* val-leys Or mount-ains e-ver bred, The
w:On* whom they oft have* tend-ed And ca-rol'd in the plains, And
V:2
z|G,2C2|D3D/C/|B,A, G,=F,/E,/|D,3D|
V:1
[Dc]G [Ec]>[GB]|[DA]/G/^F/=E/ D B/c/ & x3[DG]|d(G/A/) B>A & [DG][B,G][DG][C^F]|[B,G]3:||G|
w:shep-herd's joy, So beau-ti-ful and coy, Fair* Phi-li-*da is dead! But
w:for her sake, Sweet Rounde-*lays did make, Ad-*mir'd by* youth-ful swains.||
V:2
G,EC2|^F,3G,/A,/|B,EDD|(G2G,):||z|
V:1
AA A(B/c/) & D4|d(A/G/) ^F=E/D/ & DEx2|G>G (A/B/)(c/d/) & D2 ^F2|[GB]3B & x3G/F/|[EAc][DBd] c>B & x2[FB]A|
w:cruel* fate,* the beau-ties* en-*vying Of this bloom-*ing* rose, So ready* to dis-
V:2
^F3G/A/|Bcdz|BG cA & x2 D2|B3B & GF E>D|CB, FF,|
V:1
[DB]4|[Bd]/e/f/B/ [Bd][Ac]|[GB]/c/d/G/ [GB][^FA]|^F/G/[FA]/D/ [DGB][CFA]|[B,G]3||
w:close, With a frost un-kind-ly Nipt the bud un-time-ly, So a-way her glo-ry goes.
V:2
B,F,B,,2|B,DF2|GBd2|zD,D2|G,DG||

